X:1
T:Wave Dancers
M:6/8
L:1/8
Q:110
C:(c) Greg Anderson, 16 June 2000
R:Jig
H:On a short holiday in St. Jean de Luz, just south of Biarritz, we were
H:dazzled, on a cold and blustery day, by windsurfers negotiating the
H:high winds on the bay and barely touching the wave tops as they
H:rocketed along
K:Em
B,|:EFG BFA|G^DF E2 B|efe dBA|B3 B2 d|cBA Ggf|
eBG E2 E|1^DEF cBG|F3 FAG:|2^DEF AGF|
EGB efg|:faa bag|eBg e2 e|^def BAG|EFG B2 B|
cBA Bef|g^de E2 E|^DEF AGF|1EGB efg:|2E3-E2 B,||
